Newaita-dark/apps/48/preferences-system-services.svg

<svg height="48" viewBox="0 0 48 48" width="48" xmlns="http://www.w3.org/2000/svg" xmlns:xlink="http://www.w3.org/1999/xlink"><linearGradient id="a" gradientUnits="userSpaceOnUse" x1="22.822494" x2="22.822494" y1="44.0354645" y2="46.02003050005"><stop offset="0" stop-opacity=".27451"/><stop offset="1" stop-opacity="0"/></linearGradient><linearGradient id="b"><stop offset="0" stop-opacity=".313726"/><stop offset=".222222" stop-opacity=".27451"/><stop offset="1" stop-opacity="0"/></linearGradient><radialGradient id="c" cx="450.908936" cy="189.579361" gradientTransform="matrix(.00000026 -.117199 -.210958 -.00000015 80.180539 97.377562)" gradientUnits="userSpaceOnUse" r="21.166656" xlink:href="#b"/><radialGradient id="d" cx="450.908936" cy="189.579361" gradientTransform="matrix(-.00000026 .117199 .210958 .00000015 -32.550975 -9.306655)" gradientUnits="userSpaceOnUse" r="21.166656" xlink:href="#b"/><radialGradient id="e" cx="450.908936" cy="189.579361" gradientTransform="matrix(-.00000026 -.117199 .210958 -.00000015 -32.550975 97.377562)" gradientUnits="userSpaceOnUse" r="21.166656" xlink:href="#b"/><radialGradient id="f" cx="450.908936" cy="189.579361" gradientTransform="matrix(.00000026 .117199 -.210958 .00000015 80.180536 -9.306655)" gradientUnits="userSpaceOnUse" r="21.166656" xlink:href="#b"/><linearGradient id="g"><stop offset="0" stop-color="#e0e0e0"/><stop offset="1" stop-color="#bdbdbd"/></linearGradient><linearGradient id="h" gradientTransform="matrix(-.00354054 .00260458 -.00260458 -.00354054 2.400617 20.471799)" gradientUnits="userSpaceOnUse" x1="254" x2="254" xlink:href="#g" y1="-189.833328" y2="275.833344"/><linearGradient id="i" gradientTransform="matrix(.00093677 -.00068913 .00068913 .00093677 -.265096 .172744)" gradientUnits="userSpaceOnUse" x1="960" x2="960" xlink:href="#g" y1="175.118118" y2="335.118103"/><linearGradient id="j"><stop offset="0" stop-color="#616161"/><stop offset="1" stop-color="#424242"/></linearGradient><linearGradient id="k" gradientTransform="matrix(.068645 0 0 .093759 -23.274823 17.118823)" gradientUnits="userSpaceOnUse" x1="254" x2="254" xlink:href="#j" y1="-173.958328" y2="127.666656"/><linearGradient id="l" gradientTransform="matrix(.068645 0 0 .093759 -23.274823 28.033928)" gradientUnits="userSpaceOnUse" x1="254" x2="254" xlink:href="#j" y1="254.666672" y2="-168.666672"/><linearGradient id="m" gradientUnits="userSpaceOnUse" x1="23.814786" x2="23.814786" y1="44.03546750005" y2="4.34415649995"><stop offset="0" stop-color="#8d6e63"/><stop offset="1" stop-color="#a1887f"/></linearGradient><path d="m6.945312 44.144531h33.738282v1.875h-33.738282zm0 0" fill="url(#a)"/><path d="m40.683594 44.035156h3.96875v-1.984375h-3.96875zm0 0" fill="url(#c)"/><path d="m6.945312 44.035156h-3.96875v1.984375h3.96875zm0 0" fill="url(#d)"/><path d="m6.945312 44.035156h-3.96875v-1.984375h3.96875zm0 0" fill="url(#e)"/><path d="m40.683594 44.035156h3.96875v1.984375h-3.96875zm0 0" fill="url(#f)"/><path d="m23.816406 10.296875c-9.898437 0-17.863281 7.96875-17.863281 17.863281h35.722656c0-9.894531-7.964843-17.863281-17.859375-17.863281zm0 0" fill="url(#h)"/><path d="m23.816406 4.34375c-2.199218 0-3.972656 1.769531-3.972656 3.96875h7.941406c0-2.199219-1.773437-3.96875-3.96875-3.96875zm0 0" fill="url(#i)"/><path d="m21.832031 8.3125h3.96875v1.984375h-3.96875zm0 0" fill="url(#k)"/><path d="m11.90625 28.160156h23.816406v1.984375h-23.816406zm0 0" fill="url(#l)"/><path d="m5.953125 30.144531h35.722656c1.097657 0 1.984375.886719 1.984375 1.984375v9.921875c0 1.097657-.886718 1.984375-1.984375 1.984375h-35.722656c-1.09375 0-1.984375-.886718-1.984375-1.984375v-9.921875c0-1.097656.890625-1.984375 1.984375-1.984375zm0 0" fill="url(#m)"/><path d="m23.816406 4.34375c-2.199218 0-3.972656 1.769531-3.972656 3.96875h.03125c.242188-1.960938 1.910156-3.472656 3.941406-3.472656 2.027344 0 3.695313 1.511718 3.9375 3.472656h.03125c0-2.199219-1.773437-3.96875-3.96875-3.96875zm0 0" fill="#fff" fill-opacity=".470588"/><path d="m23.816406 10.296875c-9.898437 0-17.863281 7.96875-17.863281 17.863281h.007813c.261718-9.664062 8.125-17.367187 17.855468-17.367187 9.726563 0 17.589844 7.703125 17.851563 17.367187h.007812c0-9.894531-7.964843-17.863281-17.859375-17.863281zm0 0" fill="#fff" fill-opacity=".470588"/><path d="m5.953125 30.144531c-1.097656 0-1.984375.882813-1.984375 1.984375v.496094c0-1.101562.886719-1.984375 1.984375-1.984375h35.722656c1.097657 0 1.984375.882813 1.984375 1.984375v-.496094c0-1.101562-.886718-1.984375-1.984375-1.984375zm0 0" fill="#fff" fill-opacity=".392157"/><path d="m11.90625 28.160156v.496094h23.816406v-.496094zm0 0" fill-opacity=".235294"/><path d="m21.832031 8.3125v.496094h3.96875v-.496094zm0 0" fill-opacity=".235294"/><path d="m3.96875 41.554688v.496093c0 1.097657.886719 1.984375 1.984375 1.984375h35.722656c1.097657 0 1.984375-.886718 1.984375-1.984375v-.496093c0 1.097656-.886718 1.984374-1.984375 1.984374h-35.722656c-1.097656 0-1.984375-.886718-1.984375-1.984374zm0 0" fill-opacity=".235294"/><g fill="none" stroke="#212121" stroke-width="3" transform="matrix(.093759 0 0 .093759 0 20.158175)"><path d="m254.017409-105.177154c-105.573251 0-190.523472 84.991883-190.523472 190.523472h381.005282c0-105.531589-84.950221-190.523472-190.48181-190.523472zm0 0"/><path d="m232.852764-126.3418h42.329291v21.164646h-42.329291zm0 0"/><path d="m126.987873 85.346318h254.017409v21.164646h-254.017409zm0 0"/><path d="m63.493937 106.510964h381.005282c11.707215 0 21.164646 9.45743 21.164646 21.164645v105.823228c0 11.707216-9.457431 21.164646-21.164646 21.164646h-381.005282c-11.665553 0-21.164646-9.45743-21.164646-21.164646v-105.823228c0-11.707215 9.499093-21.164645 21.164646-21.164645zm0 0"/><path d="m254.017409-168.671091c-23.456093 0-42.370954 18.873198-42.370954 42.329291h84.700245c0-23.456093-18.91486-42.329291-42.329291-42.329291zm0 0"/></g></svg>

<?xml version="1.0" encoding="UTF-8"?>
<svg xmlns="http://www.w3.org/2000/svg" xmlns:xlink="http://www.w3.org/1999/xlink" width="48px" height="48px" viewBox="0 0 48 48" version="1.1">
<defs>
<linearGradient id="linear0" gradientUnits="userSpaceOnUse" x1="254" y1="233.5" x2="254" y2="254.666672" gradientTransform="matrix(0.093759,0,0,0.093759,-0.992292,22.142738)">
<stop offset="0" style="stop-color:rgb(0%,0%,0%);stop-opacity:0.27451;"/>
<stop offset="1" style="stop-color:rgb(0%,0%,0%);stop-opacity:0;"/>
</linearGradient>
<radialGradient id="radial0" gradientUnits="userSpaceOnUse" cx="450.908936" cy="189.579361" fx="450.908936" fy="189.579361" r="21.166656" gradientTransform="matrix(0.000000261256,-0.117199,-0.210958,-0.000000152308,80.180539,97.377562)">
<stop offset="0" style="stop-color:rgb(0%,0%,0%);stop-opacity:0.313726;"/>
<stop offset="0.222222" style="stop-color:rgb(0%,0%,0%);stop-opacity:0.27451;"/>
<stop offset="1" style="stop-color:rgb(0%,0%,0%);stop-opacity:0;"/>
</radialGradient>
<radialGradient id="radial1" gradientUnits="userSpaceOnUse" cx="450.908936" cy="189.579361" fx="450.908936" fy="189.579361" r="21.166656" gradientTransform="matrix(-0.000000261256,0.117199,0.210958,0.000000152308,-32.550975,-9.306655)">
<stop offset="0" style="stop-color:rgb(0%,0%,0%);stop-opacity:0.313726;"/>
<stop offset="0.222222" style="stop-color:rgb(0%,0%,0%);stop-opacity:0.27451;"/>
<stop offset="1" style="stop-color:rgb(0%,0%,0%);stop-opacity:0;"/>
</radialGradient>
<radialGradient id="radial2" gradientUnits="userSpaceOnUse" cx="450.908936" cy="189.579361" fx="450.908936" fy="189.579361" r="21.166656" gradientTransform="matrix(-0.000000261256,-0.117199,0.210958,-0.000000152308,-32.550975,97.377562)">
<stop offset="0" style="stop-color:rgb(0%,0%,0%);stop-opacity:0.313726;"/>
<stop offset="0.222222" style="stop-color:rgb(0%,0%,0%);stop-opacity:0.27451;"/>
<stop offset="1" style="stop-color:rgb(0%,0%,0%);stop-opacity:0;"/>
</radialGradient>
<radialGradient id="radial3" gradientUnits="userSpaceOnUse" cx="450.908936" cy="189.579361" fx="450.908936" fy="189.579361" r="21.166656" gradientTransform="matrix(0.000000261256,0.117199,-0.210958,0.000000152308,80.180536,-9.306655)">
<stop offset="0" style="stop-color:rgb(0%,0%,0%);stop-opacity:0.313726;"/>
<stop offset="0.222222" style="stop-color:rgb(0%,0%,0%);stop-opacity:0.27451;"/>
<stop offset="1" style="stop-color:rgb(0%,0%,0%);stop-opacity:0;"/>
</radialGradient>
<linearGradient id="linear1" gradientUnits="userSpaceOnUse" x1="254" y1="-189.833328" x2="254" y2="275.833344" gradientTransform="matrix(-0.00354054,0.00260458,-0.00260458,-0.00354054,2.400617,20.471799)">
<stop offset="0" style="stop-color:rgb(87.843138%,87.843138%,87.843138%);stop-opacity:1;"/>
<stop offset="1" style="stop-color:rgb(74.117649%,74.117649%,74.117649%);stop-opacity:1;"/>
</linearGradient>
<linearGradient id="linear2" gradientUnits="userSpaceOnUse" x1="960" y1="175.118118" x2="960" y2="335.118103" gradientTransform="matrix(0.000936769,-0.000689128,0.000689128,0.000936769,-0.265096,0.172744)">
<stop offset="0" style="stop-color:rgb(87.843138%,87.843138%,87.843138%);stop-opacity:1;"/>
<stop offset="1" style="stop-color:rgb(74.117649%,74.117649%,74.117649%);stop-opacity:1;"/>
</linearGradient>
<linearGradient id="linear3" gradientUnits="userSpaceOnUse" x1="254" y1="-173.958328" x2="254" y2="127.666656" gradientTransform="matrix(0.068645,0,0,0.093759,-23.274823,17.118823)">
<stop offset="0" style="stop-color:rgb(38.039216%,38.039216%,38.039216%);stop-opacity:1;"/>
<stop offset="1" style="stop-color:rgb(25.882354%,25.882354%,25.882354%);stop-opacity:1;"/>
</linearGradient>
<linearGradient id="linear4" gradientUnits="userSpaceOnUse" x1="254" y1="254.666672" x2="254" y2="-168.666672" gradientTransform="matrix(0.068645,0,0,0.093759,-23.274823,28.033928)">
<stop offset="0" style="stop-color:rgb(38.039216%,38.039216%,38.039216%);stop-opacity:1;"/>
<stop offset="1" style="stop-color:rgb(25.882354%,25.882354%,25.882354%);stop-opacity:1;"/>
</linearGradient>
<linearGradient id="linear5" gradientUnits="userSpaceOnUse" x1="254" y1="254.666672" x2="254" y2="-168.666672" gradientTransform="matrix(0.093759,0,0,0.093759,0,20.158175)">
<stop offset="0" style="stop-color:rgb(55.29412%,43.137255%,38.82353%);stop-opacity:1;"/>
<stop offset="1" style="stop-color:rgb(63.137257%,53.333336%,49.803922%);stop-opacity:1;"/>
</linearGradient>
</defs>
<g id="surface1">
<path style=" stroke:none;fill-rule:nonzero;fill:url(#linear0);" d="M 6.945312 44.144531 L 40.683594 44.144531 L 40.683594 46.019531 L 6.945312 46.019531 Z M 6.945312 44.144531 "/>
<path style=" stroke:none;fill-rule:nonzero;fill:url(#radial0);" d="M 40.683594 44.035156 L 44.652344 44.035156 L 44.652344 42.050781 L 40.683594 42.050781 Z M 40.683594 44.035156 "/>
<path style=" stroke:none;fill-rule:nonzero;fill:url(#radial1);" d="M 6.945312 44.035156 L 2.976562 44.035156 L 2.976562 46.019531 L 6.945312 46.019531 Z M 6.945312 44.035156 "/>
<path style=" stroke:none;fill-rule:nonzero;fill:url(#radial2);" d="M 6.945312 44.035156 L 2.976562 44.035156 L 2.976562 42.050781 L 6.945312 42.050781 Z M 6.945312 44.035156 "/>
<path style=" stroke:none;fill-rule:nonzero;fill:url(#radial3);" d="M 40.683594 44.035156 L 44.652344 44.035156 L 44.652344 46.019531 L 40.683594 46.019531 Z M 40.683594 44.035156 "/>
<path style=" stroke:none;fill-rule:nonzero;fill:url(#linear1);" d="M 23.816406 10.296875 C 13.917969 10.296875 5.953125 18.265625 5.953125 28.160156 L 41.675781 28.160156 C 41.675781 18.265625 33.710938 10.296875 23.816406 10.296875 Z M 23.816406 10.296875 "/>
<path style=" stroke:none;fill-rule:nonzero;fill:url(#linear2);" d="M 23.816406 4.34375 C 21.617188 4.34375 19.84375 6.113281 19.84375 8.3125 L 27.785156 8.3125 C 27.785156 6.113281 26.011719 4.34375 23.816406 4.34375 Z M 23.816406 4.34375 "/>
<path style=" stroke:none;fill-rule:nonzero;fill:url(#linear3);" d="M 21.832031 8.3125 L 25.800781 8.3125 L 25.800781 10.296875 L 21.832031 10.296875 Z M 21.832031 8.3125 "/>
<path style=" stroke:none;fill-rule:nonzero;fill:url(#linear4);" d="M 11.90625 28.160156 L 35.722656 28.160156 L 35.722656 30.144531 L 11.90625 30.144531 Z M 11.90625 28.160156 "/>
<path style=" stroke:none;fill-rule:nonzero;fill:url(#linear5);" d="M 5.953125 30.144531 L 41.675781 30.144531 C 42.773438 30.144531 43.660156 31.03125 43.660156 32.128906 L 43.660156 42.050781 C 43.660156 43.148438 42.773438 44.035156 41.675781 44.035156 L 5.953125 44.035156 C 4.859375 44.035156 3.96875 43.148438 3.96875 42.050781 L 3.96875 32.128906 C 3.96875 31.03125 4.859375 30.144531 5.953125 30.144531 Z M 5.953125 30.144531 "/>
<path style=" stroke:none;fill-rule:nonzero;fill:rgb(100%,100%,100%);fill-opacity:0.470588;" d="M 23.816406 4.34375 C 21.617188 4.34375 19.84375 6.113281 19.84375 8.3125 L 19.875 8.3125 C 20.117188 6.351562 21.785156 4.839844 23.816406 4.839844 C 25.84375 4.839844 27.511719 6.351562 27.753906 8.3125 L 27.785156 8.3125 C 27.785156 6.113281 26.011719 4.34375 23.816406 4.34375 Z M 23.816406 4.34375 "/>
<path style=" stroke:none;fill-rule:nonzero;fill:rgb(100%,100%,100%);fill-opacity:0.470588;" d="M 23.816406 10.296875 C 13.917969 10.296875 5.953125 18.265625 5.953125 28.160156 L 5.960938 28.160156 C 6.222656 18.496094 14.085938 10.792969 23.816406 10.792969 C 33.542969 10.792969 41.40625 18.496094 41.667969 28.160156 L 41.675781 28.160156 C 41.675781 18.265625 33.710938 10.296875 23.816406 10.296875 Z M 23.816406 10.296875 "/>
<path style=" stroke:none;fill-rule:nonzero;fill:rgb(100%,100%,100%);fill-opacity:0.392157;" d="M 5.953125 30.144531 C 4.855469 30.144531 3.96875 31.027344 3.96875 32.128906 L 3.96875 32.625 C 3.96875 31.523438 4.855469 30.640625 5.953125 30.640625 L 41.675781 30.640625 C 42.773438 30.640625 43.660156 31.523438 43.660156 32.625 L 43.660156 32.128906 C 43.660156 31.027344 42.773438 30.144531 41.675781 30.144531 Z M 5.953125 30.144531 "/>
<path style=" stroke:none;fill-rule:nonzero;fill:rgb(0%,0%,0%);fill-opacity:0.235294;" d="M 11.90625 28.160156 L 11.90625 28.65625 L 35.722656 28.65625 L 35.722656 28.160156 Z M 11.90625 28.160156 "/>
<path style=" stroke:none;fill-rule:nonzero;fill:rgb(0%,0%,0%);fill-opacity:0.235294;" d="M 21.832031 8.3125 L 21.832031 8.808594 L 25.800781 8.808594 L 25.800781 8.3125 Z M 21.832031 8.3125 "/>
<path style=" stroke:none;fill-rule:nonzero;fill:rgb(0%,0%,0%);fill-opacity:0.235294;" d="M 3.96875 41.554688 L 3.96875 42.050781 C 3.96875 43.148438 4.855469 44.035156 5.953125 44.035156 L 41.675781 44.035156 C 42.773438 44.035156 43.660156 43.148438 43.660156 42.050781 L 43.660156 41.554688 C 43.660156 42.652344 42.773438 43.539062 41.675781 43.539062 L 5.953125 43.539062 C 4.855469 43.539062 3.96875 42.652344 3.96875 41.554688 Z M 3.96875 41.554688 "/>
<path style="fill:none;stroke-width:3;stroke-linecap:butt;stroke-linejoin:miter;stroke:rgb(12.941177%,12.941177%,12.941177%);stroke-opacity:1;stroke-miterlimit:4;" d="M 254.017409 -105.177154 C 148.444158 -105.177154 63.493937 -20.185271 63.493937 85.346318 L 444.499219 85.346318 C 444.499219 -20.185271 359.548998 -105.177154 254.017409 -105.177154 Z M 254.017409 -105.177154 " transform="matrix(0.093759,0,0,0.093759,0,20.158175)"/>
<path style="fill:none;stroke-width:3;stroke-linecap:butt;stroke-linejoin:miter;stroke:rgb(12.941177%,12.941177%,12.941177%);stroke-opacity:1;stroke-miterlimit:4;" d="M 232.852764 -126.3418 L 275.182055 -126.3418 L 275.182055 -105.177154 L 232.852764 -105.177154 Z M 232.852764 -126.3418 " transform="matrix(0.093759,0,0,0.093759,0,20.158175)"/>
<path style="fill:none;stroke-width:3;stroke-linecap:butt;stroke-linejoin:miter;stroke:rgb(12.941177%,12.941177%,12.941177%);stroke-opacity:1;stroke-miterlimit:4;" d="M 126.987873 85.346318 L 381.005282 85.346318 L 381.005282 106.510964 L 126.987873 106.510964 Z M 126.987873 85.346318 " transform="matrix(0.093759,0,0,0.093759,0,20.158175)"/>
<path style="fill:none;stroke-width:3;stroke-linecap:butt;stroke-linejoin:miter;stroke:rgb(12.941177%,12.941177%,12.941177%);stroke-opacity:1;stroke-miterlimit:4;" d="M 63.493937 106.510964 L 444.499219 106.510964 C 456.206434 106.510964 465.663865 115.968394 465.663865 127.675609 L 465.663865 233.498837 C 465.663865 245.206053 456.206434 254.663483 444.499219 254.663483 L 63.493937 254.663483 C 51.828384 254.663483 42.329291 245.206053 42.329291 233.498837 L 42.329291 127.675609 C 42.329291 115.968394 51.828384 106.510964 63.493937 106.510964 Z M 63.493937 106.510964 " transform="matrix(0.093759,0,0,0.093759,0,20.158175)"/>
<path style="fill:none;stroke-width:3;stroke-linecap:butt;stroke-linejoin:miter;stroke:rgb(12.941177%,12.941177%,12.941177%);stroke-opacity:1;stroke-miterlimit:4;" d="M 254.017409 -168.671091 C 230.561316 -168.671091 211.646455 -149.797893 211.646455 -126.3418 L 296.3467 -126.3418 C 296.3467 -149.797893 277.43184 -168.671091 254.017409 -168.671091 Z M 254.017409 -168.671091 " transform="matrix(0.093759,0,0,0.093759,0,20.158175)"/>
</g>
</svg>
